X: 29919
T: O'Sullivan's
R: polka
M: 2/4
K: Gmajor
D|G>A GD|G2 Ge|dB AG|E2 ED|
G>A GD|G2 Ge|dB AB|d2 d2|
de/f/ ge|dB A/B/A/G|AA/B/ AG|E2 ED/E/|
G>A GD|G2 Ge|dB AB/A/|G2 d>c||
|:Bd G2|B/c/d Gd|Bd ed|BA AG/A/|
Bd Gd|Bd Gd|B/c/d ef|1 ag g>d:|2 ag- g||

